static/img/start.svg

<svg fill="none" height="21" viewBox="0 0 20 21" width="20" xmlns="http://www.w3.org/2000/svg"><path d="m2.225 16.825c-.7-.8666-1.245833-1.8375-1.6375-2.9125s-.5875-2.2125-.5875-3.4125c0-2.61662.8625-4.86662 2.5875-6.74995s3.8625-2.950001 6.4125-3.200001v2.000001c-2 .23333-3.66667 1.1-5 2.6s-2 3.28333-2 5.34995c0 .9334.14167 1.8125.425 2.6375s.69167 1.5792 1.225 2.2625zm7.775 3.675c-1.21667 0-2.36667-.2-3.45-.6s-2.05833-.9583-2.925-1.675l1.4-1.425c.68333.5334 1.44583.95 2.2875 1.25s1.7375.45 2.6875.45 1.8458-.15 2.6875-.45 1.6042-.7166 2.2875-1.25l1.4 1.425c-.8667.7167-1.8417 1.275-2.925 1.675s-2.2333.6-3.45.6zm7.775-3.675-1.425-1.425c.5333-.6833.9417-1.4375 1.225-2.2625s.425-1.7041.425-2.6375c0-2.06662-.6667-3.84995-2-5.34995s-3-2.36667-5-2.6v-2.000001c2.55.25 4.6875 1.316671 6.4125 3.200001s2.5875 4.13333 2.5875 6.74995c0 1.2-.1958 2.3375-.5875 3.4125s-.9375 2.0459-1.6375 2.9125zm-10.275-1.825v-8.99995l7 4.49995z" fill="#020013"/></svg>

<svg width="20" height="21" viewBox="0 0 20 21" fill="none" xmlns="http://www.w3.org/2000/svg">
<path d="M2.225 16.825C1.525 15.9584 0.979167 14.9875 0.5875 13.9125C0.195833 12.8375 0 11.7 0 10.5C0 7.88338 0.8625 5.63338 2.5875 3.75005C4.3125 1.86672 6.45 0.800049 9 0.550049V2.55005C7 2.78338 5.33333 3.65005 4 5.15005C2.66667 6.65005 2 8.43338 2 10.5C2 11.4334 2.14167 12.3125 2.425 13.1375C2.70833 13.9625 3.11667 14.7167 3.65 15.4L2.225 16.825ZM10 20.5C8.78333 20.5 7.63333 20.3 6.55 19.9C5.46667 19.5 4.49167 18.9417 3.625 18.225L5.025 16.8C5.70833 17.3334 6.47083 17.75 7.3125 18.05C8.15417 18.35 9.05 18.5 10 18.5C10.95 18.5 11.8458 18.35 12.6875 18.05C13.5292 17.75 14.2917 17.3334 14.975 16.8L16.375 18.225C15.5083 18.9417 14.5333 19.5 13.45 19.9C12.3667 20.3 11.2167 20.5 10 20.5ZM17.775 16.825L16.35 15.4C16.8833 14.7167 17.2917 13.9625 17.575 13.1375C17.8583 12.3125 18 11.4334 18 10.5C18 8.43338 17.3333 6.65005 16 5.15005C14.6667 3.65005 13 2.78338 11 2.55005V0.550049C13.55 0.800049 15.6875 1.86672 17.4125 3.75005C19.1375 5.63338 20 7.88338 20 10.5C20 11.7 19.8042 12.8375 19.4125 13.9125C19.0208 14.9875 18.475 15.9584 17.775 16.825ZM7.5 15V6.00005L14.5 10.5L7.5 15Z" fill="#020013"/>
</svg>
